X:210
U: ~ = !turn!
%%topmargin 3cm
T:Walls of Liscarroll
B:Traditional Irish Fiddle Tunes. Randy Miller and Jack Perron.
S:Chieftains
Z:Transcribed by Ralph Palmer
R:Jig
M:6/8
L:1/8
N:Key signature looks like G; tune sounds like Em.
K:G
d |: dcA {/B}AGE | {/A}GED D2 E | {/A}GEE cEE | GAB cde |
dcA {/B}AGE | {/A}GED D2 E | {/A}GEE cEE | DED D2 d :|
dAd ecA | dAd ecA | GEE cEE | GAB cde |
dAd ecA | dAd edA | GEE cEE | DED D2 d ||
dAd ecA | dAd ecA | GEE cEE | GAB cde |
ecA {/B}AGE | GED D2E | {/A}GEE cEE | DED D2 |]
